X:16901
T:The Killimer
R:Jig
M:6/8
D:Session tape - Ballaghadereen Fleadh, 1977
Z:Bernie Stocks
K:G
DEF GAG | BAG ABc | ded fed |1 ded cAF :|2 cAF G3 ::
GBd g3 | dgb gdB |1 GBd g3 | fed cAF :|2 GBd fed | cAF G3 :|
